libs/ui/packages/crypto-icons/src/svg/PLR.svg

<svg width="24" height="24" viewBox="0 0 24 24" fill="none">
<path d="M6.3075 15.6765H6.234V18.75H4.5V8.34375H6.195V8.82375H6.26175C6.8535 8.25675 7.60725 8.241 8.03025 8.241C9.80325 8.241 10.9658 9.93075 10.9658 12.1875V12.48C10.9658 14.8282 9.62025 16.2277 8.00025 16.2277C7.242 16.23 6.68025 16.0568 6.3075 15.6765ZM9.3555 12.6195V12.1072C9.3555 10.6372 8.79525 9.654 7.797 9.654C6.7185 9.654 6.14025 10.797 6.14025 12.1072V12.6172C6.14025 13.866 6.7095 14.8223 7.827 14.8223C8.70675 14.8193 9.3555 14.1337 9.3555 12.6195ZM11.805 5.25H13.5413V16.182H11.805V5.25ZM18.5018 10.0568C17.5283 10.0568 16.5615 10.8293 16.5615 11.8057V16.1887H14.835V8.41725H16.4347V8.895H16.5C16.8885 8.4855 17.8387 8.2935 18.6202 8.30475C18.6982 8.30475 18.6337 8.307 18.7095 8.307L18.7185 10.0568H18.5018ZM17.7728 14.3212H19.5V16.182H17.7728V14.3212Z" fill="#00BFFF"/>
</svg>

<svg width="24" height="24" viewBox="0 0 24 24" fill="none"><path fill="#00bfff" d="M6.308 15.677h-.074v3.073H4.5V8.344h1.695v.48h.067c.592-.567 1.345-.583 1.768-.583 1.773 0 2.936 1.69 2.936 3.947v.292c0 2.348-1.346 3.748-2.966 3.748-.758.002-1.32-.171-1.692-.552m3.047-3.057v-.513c0-1.47-.56-2.453-1.558-2.453-1.078 0-1.657 1.143-1.657 2.453v.51c0 1.249.57 2.205 1.687 2.205.88-.003 1.528-.688 1.528-2.202m2.45-7.37h1.736v10.932h-1.736zm6.697 4.807c-.974 0-1.94.772-1.94 1.749v4.383h-1.727V8.417h1.6v.478h.065c.389-.41 1.339-.601 2.12-.59.078 0 .014.002.09.002l.008 1.75zm-.73 4.264H19.5v1.861h-1.727z"/></svg>
